!!!OTL: ALLERSCHOENSTER ENGEL
!!!ARE: Europa, Mitteleuropa, Deutschland, Harz
!!!SCT: E0505
!!!YEM: Copyright 1995, estate of Helmut Schaffrath.
**kern
*ICvox
*Ivox
*M2/4
*k[]
*C:
=1
{8cc
8cc
8b
8b
=2
8cc
8cc
4g}
=3
{8cc
8cc
8b
8dd
=4
4cc
4r}
=5
{8cc
8cc
8b
8b
=6
8cc
8cc
4g}
=7
{8cc
8cc
8b
8dd
=8
4cc
8r}
{8g
=9
8a
8a
8a
8a
=10
8g
8g
8g}
{8g
=11
4ff
4ee
=12
4.dd}
{8g
=13
4g
8g
8b-
=14
8a
8cc
4f}
=15
{8a
8a
8a
8cc
=16
8b-
8dd
8g}
{8g
=17
8.cc
16b-
8.cc
16b-
=18
4.cc}
{8e
=19
4f
4g
=20
4c
4r}
==
!!!AGN: Liebes - Lied
!!!ONB: ESAC (Essen Associative Code) Database: ERK1
!!!AMT: simple duple
!!!AIN: vox
!!!EED: Helmut Schaffrath
!!!EEV: 1.0
*-
